X:4
T:Luring #4
R:schottis
H:efter Luringen och Spel-Bengten
A:Sm{\aa}land
Z:hn-schottis-4
M:C|
K:Gmix
G>AB>c d2d2|f>ec>e d2d2|e>fe>d c>dc>B|B2G2 E4|
G>AB>c d2d2|f>ec>e d2d2|e>fe>d c>BE>G|B2A2 A4:|
|:a>ga>c' a2g2|f2(3efe d4|e>fe>d c>dc>B|B2G2 E4|
a>ga>c' a2g2|f2(3efe d4|e>fe>d c>BE>G|B2A2 A4:|

